X: 16
T: Tick Dance Song (e)
C: Anon.
%%abc-version 2.0
%%abcx-abcm2ps-target-version 5.9.1 (29 Sep 2008)
%%abc-creator hum2abc beta
%%abcx-conversion-date 2020/08/10 20:56:09
%%abc-copyright Electronic Copyright 2000 David Huron
%%abc-edited-by David Huron
%%abcx-initial-encoding-date August 27, 2000
%%humdrum-veritas 3061987146
%%humdrum-veritas-data 3411570298
%%linebreak <none>
%%barnumbers 0
L: 1/8
M: 3/4
Q: 1/4=80
K: Eb clef=bass
A,2A,2A, F, | 
B,2B, A, G, E, | 
F,2F, E, E, z | 
E, E,E,2E,2 | 
F,2F, E, E, z | 
E, E,E,2E, B,, | 
E, E, F, E, E, z | 
E, E,E,2E, z | 
E2E B,B,2 | 
B,2B, A, G, E, | 
F,2F, E, E, z | 
E, E,E,2E,2 | 
F,2F, E, E, z | 
E,2E, E, E, B,, | 
E, E, E, E, E, z | 
E, E, E, E, E, E, | 
A,2F, E,F,2 | 
B,2B, A, G, E, | 
F,2F, E, E, z | 
E, E, E, E,E,2 | 
F,2F, E, E, z | 
E, E,E,2E, B,, | 
E, E, E, E, E, z | 
E, E, E, E,E,2 | 
A,2F, E,F,2 | 
B,2B, A, G, E, | 
F,2F, E, E, z | 
E, E, E, E,E,2 | 
F,2F, E, E, z | 
E, E,E,2E, B,, | 
E, E, E, E, E, z | 
E, E, E, E,E,2 |]  


